X:1
T:Beautiful Star
T:Beautiful Star
T:John Henry Kurzenknabe, 1888
T:Alexcenah Thomas (1857-ca. 1910)
T:Public Domain Courtesy of the Cyber Hymnal™
T:Public Domain Courtesy of the Cyber Hymnal™
C:John Henry Kurzenknabe, 1888
Z:Public Domain
Z:Courtesy of the Cyber Hymnal™
%%score ( 1 2 ) 3
L:1/8
Q:1/4=95
M:3/4
K:F
V:1 treble 
V:2 treble 
V:3 bass 
V:1
 [FA][FB] | [FA]2 [EG]2 [EG][FA] | [CG]2 [CF]2 [CF][CG] | [CF]2 [CE]2 [DF][DB] | [FA]4 [FA][FB] | %5
w: 1.~Je- sus|is the star of|guid- ance Shin- ing|bright up- on our|way, Lead- ing|
w: 2.~When of|old the wise men|jour- neyed Where the|lit- tle Christ child|lay, Up in|
w: 3.~Bear- ing|gifts of love they|fol- low Till they|find the Lord of|all Cra- dled|
 [FA]2 [EG]2 [EG][FA] | [CG]2 [CF]2 [FB][Fd] | [Fc]3 [FA] [EG][CG] | [CF]4 [FA][FA] | %9
w: ev- er thro’ the|dark- ness Up to|realms of end- less|day. Hail, O|
w: heav’n a star so|won- drous Shone to|guide them on their|way; And they|
w: low- ly in a|man- ger, And be-|fore His feet they|fall. Then they|
 [FB]3 [FB] [DF][FG] | [FA]2 [FA]2 [Ac][Bd] | [Ac]3 [FA] [GB][FA] | [EG]4 [FA][GB] | %13
w: star that shines in|splen- dor Thro’ the|dark- ness of the|night! Shin- ing|
w: saw the star of|glo- ry, Knew at|once this was the|sign That to|
w: wor- ship and a-|dore Him, Je- sus|Christ the in- fant|king; Cost- ly|
 [Ac]3 [FA] [EG]F | [FB]2 [Fd]2 [Fc][FB] | [FA]3 [GB] [FA][CG] | [CF]4 ||[M:9/8]"^Refrain" FGA | %18
w: o’er the fields of|er- ror, Doubt and|gloom will take their|flight.||
w: them was born a|Sav- ior, Him of|roy- al Da- vid’s|line.|Beau- ti- ful|
w: gifts of gold and|in- cense To His|hum- ble throne they|bring.||
 B6 dcB | A6- [FA]2 [FA][Ac][GB][FA] | [EG]3 [Ec]3 [EB]3 | [FA]3 [Fc]3 | FGA | B6 dcB | %24
w: ||||||
w: star, Beau- ti- ful|star, ~ ~ ~ ~ ~|~ ~ ~|~ ~|~ Beau- ti-|ful star, Beau- ti-|
w: ||||||
 A3- [FA]2 [FA] [Ac][GB][FA] | [EG]3 [Ed]3 [Ec]3 | [EB]3 [FA]3 |] %27
w: |||
w: ful star, * * * *|||
w: |||
V:2
 x2 | x6 | x6 | x6 | x6 | x6 | x6 | x6 | x6 | x6 | x6 | x6 | x6 | x5 F | x6 | x6 | x4 || %17
[M:9/8] x3 | (FFF F3) x3 | FFF x9 | x9 | x6 | x3 | (FFF F3) x3 | FFF x6 | x9 | x6 |] %27
V:3
 [F,C][F,C] | [C,C]2 [C,C]2 [C,C][C,C] | [F,B,]2 [F,A,]2 [F,A,][F,B,] | %3
w: ~ ~|~ ~ ~ ~|~ ~ ~ ~|
 [C,A,]2 [C,G,]2 [C,C][C,C] | [F,C]4 [F,C][F,D] | [C,C]2 [C,C]2 [C,C][C,C] | %6
w: ~ ~ ~ ~|~ ~ ~|~ ~ ~ ~|
 [F,B,]2 [F,A,]2 [B,,D][B,,B,] | [C,A,]3 [C,C] [C,C][C,B,] | [F,A,]4 [F,C][F,C] | %9
w: ~ ~ ~ ~|~ ~ ~ ~|~ ~ ~|
 [B,,D]3 [B,,D] [B,,B,][B,,D] | [F,C]2 [F,C]2 [F,C][F,C] | [F,C]3 [F,C] [E,C][F,C] | %12
w: ~ ~ ~ ~|~ ~ ~ ~|~ ~ ~ ~|
 [C,C]4 [F,C][F,C] | [F,C]3 [F,C] [C,C][D,A,] | [B,,D]2 [B,,B,]2 [A,,C][B,,D] | %15
w: ~ ~ ~|~ ~ ~ ~|~ ~ ~ ~|
 [C,C]3 [C,C] [C,C][C,B,] | [F,A,]4 ||[M:9/8] z3 | [B,,D][B,,D][B,,D] [B,,D]3 z3 | %19
w: ~ ~ ~ ~|~||Beau- ti- ful star,|
 [F,C][F,C][F,C] [F,C]2 [F,C] [F,C][F,C][F,C] x3 | [C,C]3 [C,G,]3 [C,C]3 | [F,C]3 [F,A,]3 | z3 | %23
w: beau- ti- ful star, Thy ra- di- ance|o’er us is|steal- ing;||
 [B,,D][B,,D][B,,D] [B,,D]3 z3 | [F,C][F,C][F,C] [F,C]2 [F,C] [F,C][F,C][F,C] | %25
w: Beau- ti- ful star,|beau- ti- ful star, To mor- tals a|
 [C,C]3 [C,G,]3 [C,G,]3 | [C,C]3 [F,C]3 |] %27
w: glo- ry re-|veal- ing.|

